X: 3016
T: LADY MARY STOPFORD
Q:"Reel."
R: Reel.
%R:reel
B: James Kerr "Merry Melodies" v.3 p.4 #16
Z: 2016 John Chambers <jc:trillian.mit.edu>
M: C
L: 1/8
K: D
B |\
AFdA A2(FA) | BGAF GEEG |\
FADF GBEd | ceAc dDD ::\
g |\
fdad f2(df) |
gfed ceAg |\
[1 fdad f2(df) abag fddg :|\
[2 B2(GB) ceAc | dfeg fdd |]

%%sep 1 1 500
%%sep 1 1 500

